X:1
T: Miss Margaret Campbell (of Saddell's) Reel
C:R. Mackintosh
R:Reel
Q: 232
K:A
M:4/4
L:1/8
|:c|AE cA ec ae|fd ec dB Bc|AE cA ec ae|fd Be cA Ac|
AE cA ec ae|fd ec dB Bc|AE cA ec ae|fd Be cA Ae|
ag ae cA ec|Bb ba bf fg|ag ae cA ec|df ed cA Ae|
ag ae cA ec|Bb ba bf fg|af bg af ed|ce Bd cA A:|
